X: 228
T:Sally in our Alley
Z:Alf.warnock@rogers.com
M:3/4
L:1/8
K:C
g/f/ ef|e2 de/2d/2 cd| c2-cc/2B/2 AG|FEDC Cc-|c2 z :|
|:z e/f/ ge| agfe fd|gfed ec| fedc BG-|
G2z g/f/ ef|e2 de/2d/2 cd|c2 Be/f/ge|fedc Gc-|c2 z:|
